X: 41063
T: Trip To Nenagh, The
R: reel
M: 4/4
K: Dmajor
|:dcAG FDDG,|A,DFA d=cAG|Ad ~d2 A=fed|=c2 Gc EcGc|
dcAG FDDG,|A,DFA d=cAG|Ad ~d2 ADFA|G=CEG FD D2:|
|:Adfd adfa|gfed ceAc|dcAG FADF|(E/F/G) AB =c2 Bc|
Adde (ef)ed|cdef .g2 (e/f/g)|a2 ea caec|dcAG FD D2:|

